data/sheikah/b.svg

<!-- Generated by IcoMoon.io -->
<svg version="1.1" xmlns="http://www.w3.org/2000/svg" width="1024" height="1024" viewBox="0 0 1024 1024">
<title></title>
<g id="icomoon-ignore">
</g>
<path d="M153.5 153.5h119.5v119.5h-119.5v-119.5zM751 153.5h119.5v119.5h-119.5v-119.5zM352.5 153.5h119.5v199l-119.5 119.5h-199v-119.5h199v-199zM552 153.5h119.5v199h199v119.5h-199l-119.5-119.5v-199zM273 870.5l-119.5-119.5v-79.5l119.5-119.5h478l119.5 119.5v79.5l-119.5 119.5v-199h-478v199zM352.5 751h319v119.5h-319v-119.5z"></path>
</svg>

<svg xmlns="http://www.w3.org/2000/svg" width="1024" height="1024" viewBox="0 0 1024 1024">
  <title/>
  <path d="M153.5 153.5H273V273H153.5zm597.5 0h119.5V273H751zm-398.5 0H472v199L352.5 472h-199V352.5h199zm199.5 0h119.5v199h199V472h-199L552 352.5zm-279 717L153.5 751v-79.5L273 552h478l119.5 119.5V751L751 870.5v-199H273zM352.5 751h319v119.5h-319z"/>
</svg>
